cached_logos/business-intelligence-of-oriental-nations-corporation-ltd.svg

<svg xmlns="http://www.w3.org/2000/svg" role="img" viewBox="-6.81 -6.81 354.38 113.88"><title>Business-intelligence of Oriental Nations Corporation Ltd logo</title><style>svg {isolation:isolate}</style><defs><clipPath id="_clipPath_9TD838Xji0rd4Rei5owljWFW7tXeuCSP"><path d="M0 0H340.99V100.46H0z"/></clipPath></defs><g clip-path="url(#_clipPath_9TD838Xji0rd4Rei5owljWFW7tXeuCSP)"><g><path fill="#3378EA" d="M257 14.73Q241.34 14.73 225.7 14.73C224.53 14.73 224.15 15.22 224.15 16.32Q224.15 32.63 224.15 48.94C224.15 50.3 224.4 50.52 225.79 50.52L256.85 50.52C258.32 50.52 258.48 50.35 258.48 48.84 258.48 43.46 258.48 38.09 258.48 32.71 258.48 27.33 258.48 21.79 258.48 16.34 258.48 15.24 258.15 14.73 257 14.73zM252.69 45.21L230 45.21C230 44.73 229.92 44.3 229.92 43.87 229.92 36.37 229.92 28.87 229.92 21.37 229.92 20.37 230.16 19.98 231.25 19.99 238.03 20.04 244.81 19.99 251.59 19.99 251.94 19.99 252.29 19.99 252.72 20.06L252.69 45.21zM218.8 21.15C218.8 19.77 218.57 19.57 217.16 19.57 212.98 19.57 208.81 19.57 204.63 19.57 203.952 19.617 203.31 19.255 203 18.65 201.86 16.91 200.61 15.24 199.4 13.55 199.194 13.125 198.796 12.825 198.33 12.743 197.864 12.662 197.388 12.81 197.05 13.14 196.3 13.68 195.48 14.14 194.69 14.59 193.61 15.25 193.59 15.52 194.4 16.59 195.21 17.66 195.79 18.41 196.7 19.59L195 19.59C191.19 19.59 187.38 19.59 183.56 19.59 182.5 19.59 181.99 19.95 182.07 21.07 182.125 21.872 182.125 22.678 182.07 23.48 182 24.48 182.41 24.91 183.46 24.89 185.87 24.84 188.28 24.89 190.68 24.89 191.47 24.89 191.78 25.15 191.68 25.94 191.52 27.89 191.49 29.86 191.24 31.81 190.69 36.22 189.47 40.4 186.24 43.65 184.85 45.04 183.34 46.31 181.83 47.56 180.66 48.56 180.61 48.67 181.71 49.78L183.16 51.23C184.29 52.37 184.47 52.39 185.78 51.44 191.03 47.63 194.78 42.77 196.06 36.29 196.22 35.51 196.53 35.29 197.33 35.29Q201.73 35.35 206.12 35.29C207.04 35.29 207.41 35.51 207.38 36.5 207.3 38.38 207.38 40.27 207.38 42.16 207.38 44.05 206.51 45.09 204.47 45.16 203.35 45.21 202.23 45.16 201.1 45.16 200.18 45.16 199.79 45.57 199.81 46.47 199.81 47.52 199.81 48.56 199.81 49.6 199.81 50.64 200.2 50.89 201.12 50.87 202.97 50.87 204.82 50.87 206.66 50.87 210.89 50.87 213.01 48.76 213.03 44.5 213.05 40.24 213.03 35.91 213.03 31.62 213.03 30.11 212.87 29.95 211.39 29.94L197 29.94C197.1 28.17 197.19 26.59 197.28 24.94L207 24.94C210.45 24.94 213.9 24.94 217.35 24.94 218.35 24.94 218.83 24.56 218.77 23.52 218.76 22.67 218.81 21.91 218.8 21.15zM176.4 21C176.48 19.89 175.97 19.5 174.9 19.51 171.65 19.51 168.4 19.51 165.15 19.51L158 19.51C158.82 18.3 159.45 17.34 160.11 16.39 160.348 16.159 160.455 15.825 160.397 15.498 160.339 15.172 160.123 14.895 159.82 14.76 158.96 14.17 158.06 13.63 157.24 12.99 156.42 12.35 155.75 12.55 155.17 13.42 154 15.19 152.76 16.92 151.59 18.7 151.273 19.259 150.66 19.583 150.02 19.53 147.33 19.53 144.64 19.53 141.95 19.53 140.09 19.53 139.95 19.64 140 21.53 140 25.21 139.52 24.79 143.25 24.81 144.55 24.81 145.84 24.81 147.39 24.81 146.39 26.32 145.62 27.63 144.67 28.75 143.42 30.172 142.838 32.061 143.07 33.94 143.21 35.5 143.18 35.59 144.72 35.6L155.32 35.6C155.74 35.6 156.17 35.6 156.63 35.66 156.63 38.45 156.63 41.1 156.63 43.74 156.645 44.212 156.46 44.669 156.122 44.998 155.783 45.327 155.321 45.498 154.85 45.47 154.447 45.5 154.043 45.5 153.64 45.47 152.69 45.41 152.34 45.91 152.34 46.78 152.34 47.65 152.34 48.63 152.34 49.55 152.34 50.47 152.69 50.8 153.58 50.78 155.15 50.78 156.72 50.78 158.28 50.78 160.8 50.7 162.28 49.32 162.35 46.78 162.44 43.41 162.43 40.04 162.41 36.67 162.41 35.84 162.65 35.54 163.5 35.56 166.07 35.56 168.64 35.56 171.21 35.56 174.93 35.56 174.43 36.13 174.46 32.32 174.46 30.32 174.46 30.32 172.46 30.32L162.46 30.32C162.46 29.39 162.46 28.56 162.46 27.73 162.52 27.383 162.408 27.028 162.159 26.778 161.911 26.528 161.558 26.413 161.21 26.47L157.96 26.47C157.614 26.422 157.266 26.54 157.02 26.788 156.775 27.036 156.66 27.385 156.71 27.73L156.71 30.23 150.71 30.23C151.92 28.46 152.99 26.82 154.15 25.23 154.464 24.944 154.876 24.79 155.3 24.8 157.47 24.8 159.64 24.8 161.8 24.8 166.22 24.8 170.64 24.8 175.05 24.8 176.1 24.8 176.53 24.44 176.46 23.4 176.385 22.602 176.365 21.8 176.4 21L176.4 21zM300.29 18.29C297.76 18.34 295.23 18.29 292.7 18.29 292.064 18.348 291.453 18.027 291.14 17.47 290.23 16.1 289.2 14.81 288.23 13.47 288.033 13.063 287.653 12.774 287.207 12.695 286.762 12.616 286.305 12.755 285.98 13.07 285.13 13.67 284.21 14.16 283.31 14.7 282.6 15.13 282.54 15.64 283.07 16.28 283.6 16.92 284.01 17.47 284.59 18.22L276.12 18.22C276.21 17.88 276.26 17.69 276.32 17.51 276.99 15.33 276.99 15.33 274.9 14.56 274.44 14.39 273.98 14.25 273.54 14.06 273.179 13.816 272.716 13.779 272.32 13.96 271.924 14.142 271.651 14.517 271.6 14.95 270.017 19.863 267.184 24.281 263.38 27.77 261.94 29.16 261.96 29.48 263.38 30.89 265.47 32.98 265.47 32.98 267.95 31.37L267.95 32.73C267.95 38.35 267.95 43.97 267.95 49.59 267.95 50.97 268.16 51.18 269.55 51.2L271.96 51.2C273.47 51.2 273.66 50.99 273.66 49.43 273.66 41.57 273.76 33.7 273.6 25.83 273.6 23.53 274.66 21.83 275.54 19.96 275.647 20.283 275.701 20.62 275.7 20.96 275.7 22.96 275.7 22.96 277.7 22.96Q288.13 22.96 298.54 22.96C302.14 22.96 301.75 23.44 301.8 19.66 301.8 18.67 301.38 18.27 300.29 18.29z"/><path fill="#3378EA" d="M298.72 38.57C298.72 37.45 298.4 36.99 297.22 36.99Q288.22 37.05 279.3 36.99C278.17 36.99 277.83 37.45 277.84 38.5 277.84 41.98 277.84 45.5 277.84 48.96 277.84 50.35 278.02 50.51 279.46 50.51L288.36 50.51C291.28 50.51 294.21 50.51 297.14 50.51 298.27 50.51 298.72 50.17 298.7 49 298.66 45.54 298.67 42.05 298.72 38.57zM292.9 45.77L283.63 45.77C283.63 44.55 283.63 43.41 283.63 42.27 283.63 42.07 284.03 41.74 284.24 41.73 287.07 41.73 289.9 41.73 292.88 41.73L292.9 45.77zM279.33 35.61C282.33 35.55 285.33 35.61 288.33 35.61L295.55 35.61C299.06 35.61 298.66 36.01 298.68 32.46 298.68 30.99 298.55 30.86 297.11 30.86Q289.04 30.86 280.99 30.86C277.57 30.86 277.85 30.4 277.82 34.14 277.83 35.19 278.22 35.63 279.33 35.61zM279.61 29.41C284.9 29.41 290.2 29.41 295.49 29.41 299.19 29.41 298.63 29.72 298.71 26.2 298.71 25.11 298.39 24.69 297.27 24.71 294.27 24.76 291.33 24.71 288.36 24.71 285.8 24.71 283.23 24.71 280.66 24.71 277.66 24.71 277.84 24.32 277.85 27.59 277.86 29.3 278 29.41 279.61 29.41zM152.38 39.58C151.339 38.639 150.251 37.751 149.12 36.92 148.9 36.77 148.12 37.02 147.89 37.32 145.46 40.32 143.12 43.44 140.68 46.46 140.08 47.21 140.1 47.69 140.82 48.25 141.626 48.85 142.397 49.494 143.13 50.18 143.92 50.96 144.6 50.91 145.24 50.1Q148.75 45.67 152.24 41.22C152.433 40.906 152.588 40.571 152.7 40.22 152.58 40 152.54 39.71 152.38 39.58zM174.16 43.59C172.61 41.5 171.01 39.45 169.34 37.46 168.907 37.052 168.3 36.887 167.72 37.02 166.584 37.617 165.518 38.338 164.54 39.17 164.273 39.539 164.216 40.019 164.39 40.44 166.68 43.72 169.04 46.95 171.39 50.19 171.613 50.434 171.853 50.662 172.11 50.87 172.52 50.64 172.81 50.5 173.11 50.33 173.94 49.77 174.74 49.15 175.61 48.65 176.48 48.15 176.61 47.49 176.08 46.65 175.41 45.64 174.87 44.55 174.16 43.59zM250.21 37.65C249.16 34.71 249.21 34.73 246.16 35.48 245.29 35.7 245.02 36.07 245.38 36.92 245.65 37.56 245.83 38.24 246.08 38.98L244.31 38.98 244.31 33.85 247.54 33.85C250.66 33.85 250.22 34.03 250.29 31.03 250.29 30.03 249.97 29.57 248.9 29.61 247.36 29.68 245.81 29.61 244.28 29.61L244.28 26.61C244.43 26.54 244.5 26.48 244.57 26.48L248.57 26.48C251.71 26.48 251.17 26.89 251.29 23.82 251.29 22.63 250.9 22.31 249.77 22.32 244.55 22.32 239.33 22.32 234.11 22.32 231.05 22.32 231.45 22.02 231.36 25.01 231.36 26.21 231.79 26.53 232.91 26.48 234.71 26.41 236.51 26.48 238.39 26.48L238.39 29.65 235 29.65C232.12 29.65 232.31 29.21 232.28 32.49 232.28 33.54 232.68 33.92 233.71 33.88 235.23 33.88 236.71 33.88 238.34 33.88L238.34 39C238.187 39.052 238.03 39.089 237.87 39.11L233.87 39.11C230.57 39.11 231.07 38.77 230.99 42.02 230.99 43.02 231.29 43.35 232.3 43.35Q241.21 43.29 250.12 43.35C251.19 43.35 251.59 42.98 251.51 41.95 251.51 41.36 251.51 40.75 251.51 40.15 251.47 39.844 251.364 39.551 251.2 39.29 250.816 38.778 250.485 38.228 250.21 37.65L250.21 37.65z"/><path fill="#3378ea" d="M 310.93 14.77 L 337 14.77 C 337.673 14.77 338.22 15.317 338.22 15.99 L 338.22 18.78 C 338.22 19.453 337.673 20 337 20 L 310.93 20 C 310.257 20 309.71 19.453 309.71 18.78 L 309.71 15.99 C 309.71 15.317 310.257 14.77 310.93 14.77 Z"/><path fill="#3378EA" d="M339.68 28.41L307.86 28.41C307.17 28.41 306.61 28.97 306.61 29.66L306.61 32.39C306.61 33.08 307.17 33.64 307.86 33.64L316.41 33.64 316.41 33.64 316.41 33.64 311.85 40.31 311.85 40.31C311.145 41.455 310.377 42.56 309.55 43.62 308.297 45.04 307.714 46.931 307.95 48.81 308.09 50.37 308.06 50.47 309.6 50.47L328.02 50.47C328.14 50.459 328.26 50.459 328.38 50.47L329.63 50.47 329.88 50.47Q332.98 50.47 336.09 50.47C339.81 50.47 339.31 51.04 339.34 47.23 339.418 46.671 339.359 46.102 339.17 45.57L336.45 38.57C336.258 38.087 335.79 37.77 335.27 37.77L332.33 37.77C331.958 37.77 331.61 37.952 331.397 38.257 331.184 38.561 331.133 38.951 331.26 39.3L333.21 44.5C333.269 44.66 333.246 44.839 333.148 44.978 333.05 45.118 332.89 45.201 332.72 45.2L327.29 45.2 321.55 45.11 315.55 45.11C316.55 43.65 317.45 42.28 318.39 40.97L318.39 40.97 322.91 34.43C323.11 34.14 323.3 33.86 323.47 33.59L339.79 33.59C340.48 33.59 341.04 33.03 341.04 32.34L341.04 29.66C341.041 29.309 340.895 28.973 340.636 28.735 340.377 28.497 340.03 28.379 339.68 28.41zM36.73 13.12L23.61 0 .08 23.54.08 23.54.02 23.54 0 74.44 18.73 74.44 18.76 31.09 36.73 13.12 36.73 13.12zM120.33 21.45L101.6 21.45 101.6 69.39 83.73 87.34 96.71 100.47 120.28 76.94 120.21 76.88 120.33 76.88 120.33 21.45 120.33 21.45zM77.77 74.39L60.94 74.39C46.304 74.39 34.44 62.526 34.44 47.89 34.44 33.254 46.304 21.39 60.94 21.39L77.77 21.39 77.77 35.24 60.94 35.24C53.943 35.24 48.27 40.913 48.27 47.91 48.27 54.907 53.943 60.58 60.94 60.58L77.77 60.58 77.77 74.39zM208.67 62.92L208.67 73.51C208.67 74.64 208.67 75.78 208.67 76.91 208.67 77.03 208.67 77.16 208.6 77.29L208.39 76.99 206.84 74.69 199.06 63.13C198.967 62.952 198.781 62.843 198.58 62.85L192 62.85 191.69 62.85 191.69 87.29C192.15 87.37 198.08 87.35 198.35 87.29L198.35 72.93 198.43 72.93 208.13 87.32 215.36 87.32 215.36 62.91C215 62.83 209 62.84 208.67 62.92zM176.36 62.41C169.358 62.383 163.657 68.032 163.621 75.033 163.584 82.035 169.225 87.744 176.227 87.79 183.229 87.836 188.945 82.202 189 75.2 189.029 71.825 187.712 68.578 185.339 66.177 182.967 63.776 179.735 62.421 176.36 62.41L176.36 62.41zM176.29 81.41C173.725 81.389 171.427 79.823 170.469 77.444 169.511 75.065 170.083 72.343 171.918 70.551 173.753 68.759 176.488 68.252 178.844 69.266 181.2 70.28 182.71 72.616 182.67 75.18 182.654 76.854 181.972 78.454 180.775 79.624 179.578 80.795 177.964 81.441 176.29 81.42L176.29 81.41zM277.15 62.46C270.153 62.449 264.468 68.104 264.441 75.1 264.413 82.097 270.054 87.796 277.051 87.84 284.047 87.884 289.759 82.256 289.82 75.26 289.849 71.879 288.528 68.626 286.149 66.223 283.771 63.82 280.531 62.465 277.15 62.46L277.15 62.46zM277.08 81.46C274.515 81.439 272.217 79.873 271.259 77.494 270.301 75.115 270.873 72.393 272.708 70.601 274.543 68.809 277.278 68.302 279.634 69.316 281.99 70.33 283.5 72.666 283.46 75.23 283.444 76.904 282.762 78.504 281.565 79.674 280.368 80.845 278.754 81.491 277.08 81.47L277.08 81.46zM230.5 68.82C232.412 68.565 234.335 69.207 235.71 70.56L240.18 66.08C235.218 61.156 227.207 61.176 222.27 66.125 217.334 71.074 217.334 79.086 222.27 84.035 227.207 88.984 235.218 89.004 240.18 84.08 238.69 82.59 237.18 81.08 235.72 79.62 233.308 81.952 229.495 81.996 227.029 79.721 224.563 77.446 224.3 73.642 226.43 71.05 227.438 69.798 228.902 68.996 230.5 68.82zM160 73.36C160.986 71.831 161.226 69.936 160.65 68.21 160.248 66.99 159.51 65.908 158.52 65.09 156.767 63.608 154.535 62.813 152.24 62.85 148.3 62.85 144.36 62.85 140.41 62.85L140.08 62.85C140 63.28 140.02 87.06 140.08 87.33L152.14 87.33C153.444 87.341 154.738 87.1 155.95 86.62 157.483 86.044 158.81 85.024 159.76 83.69 160.791 82.28 161.156 80.491 160.76 78.79 160.456 77.476 159.758 76.286 158.76 75.38L158.44 75.07C158.56 74.97 158.65 74.9 158.73 74.82 159.218 74.394 159.645 73.902 160 73.36zM154.29 81.06C154.2 81.253 154.085 81.435 153.95 81.6 153.899 81.671 153.842 81.738 153.78 81.8 153.78 81.8 153.78 81.8 153.78 81.8 153.421 82.165 152.983 82.442 152.5 82.61 152.346 82.664 152.189 82.707 152.03 82.74L151.61 82.81 151.23 82.81C149.9 82.81 148.57 82.81 147.23 82.81L146.93 82.81 146.93 77.36 147.29 77.36 151.15 77.36C151.536 77.357 151.92 77.411 152.29 77.52 152.649 77.628 152.988 77.797 153.29 78.02 153.405 78.104 153.515 78.194 153.62 78.29 153.721 78.383 153.815 78.483 153.9 78.59 154.042 78.752 154.16 78.934 154.25 79.13 154.288 79.212 154.321 79.295 154.35 79.38 154.35 79.46 154.35 79.53 154.42 79.6 154.455 79.761 154.475 79.925 154.48 80.09L154.48 80.09C154.484 80.423 154.419 80.753 154.29 81.06L154.29 81.06zM153.82 71.75C153.287 72.301 152.581 72.654 151.82 72.75 151.508 72.793 151.194 72.817 150.88 72.82L146.97 72.82 146.97 67.33 151.21 67.33C152.185 67.305 153.126 67.685 153.81 68.38 154.261 68.824 154.516 69.43 154.518 70.063 154.52 70.696 154.269 71.303 153.82 71.75zM249.94 62.94L243.08 62.94 243.08 87.43 244.31 87.43 249.94 87.43 261.61 87.43 261.61 81.66 249.94 81.66 249.94 62.94 249.94 62.94zM328.76 62.88L324 63 319.27 63 319.27 87.36 326.13 87.36 328.74 87.36 328.79 87.36C335.519 87.344 340.973 81.899 341 75.17L341 75.17C341.011 71.916 339.726 68.791 337.43 66.486 335.133 64.18 332.014 62.883 328.76 62.88L328.76 62.88zM335 75.17C334.995 78.61 332.21 81.399 328.77 81.41L326.09 81.41 326.09 69 328.79 68.92C332.205 68.947 334.967 71.706 335 75.12L335 75.17zM309.82 75.1C309.94 77.042 308.972 78.89 307.308 79.898 305.643 80.905 303.557 80.905 301.892 79.898 300.228 78.89 299.26 77.042 299.38 75.1L299.38 62.8 292.68 62.8 292.68 75.1C292.554 79.443 294.799 83.511 298.541 85.719 302.282 87.927 306.928 87.927 310.669 85.719 314.411 83.511 316.656 79.443 316.53 75.1L316.53 62.8 309.82 62.8 309.82 75.1z"/></g></g></svg>

<svg xmlns="http://www.w3.org/2000/svg" role="img" viewBox="-6.82 -6.82 354.64 113.89"><title>Business-intelligence of Oriental Nations Corporation Ltd logo</title><defs><style>.cls-1{fill:#3378ea}</style></defs><g id="图层_2" data-name="图层 2"><g id="图层_1-2" data-name="图层 1"><path d="M257 14.73h-31.3c-1.17 0-1.55.49-1.55 1.59v32.62c0 1.36.25 1.58 1.64 1.58h31.06c1.47 0 1.63-.17 1.63-1.68v-32.5c0-1.1-.33-1.61-1.48-1.61zm-4.31 30.48H230c0-.48-.08-.91-.08-1.34v-22.5c0-1 .24-1.39 1.33-1.38 6.78.05 13.56 0 20.34 0 .35 0 .7 0 1.13.07zM218.8 21.15c0-1.38-.23-1.58-1.64-1.58h-12.53a1.7 1.7 0 0 1-1.63-.92c-1.14-1.74-2.39-3.41-3.6-5.1a1.47 1.47 0 0 0-2.35-.41c-.75.54-1.57 1-2.36 1.45-1.08.66-1.1.93-.29 2s1.39 1.82 2.3 3h-13.14c-1.06 0-1.57.36-1.49 1.48a17.62 17.62 0 0 1 0 2.41c-.07 1 .34 1.43 1.39 1.41 2.41-.05 4.82 0 7.22 0 .79 0 1.1.26 1 1.05-.16 1.95-.19 3.92-.44 5.87-.55 4.41-1.77 8.59-5 11.84-1.39 1.39-2.9 2.66-4.41 3.91-1.17 1-1.22 1.11-.12 2.22l1.45 1.45c1.13 1.14 1.31 1.16 2.62.21 5.25-3.81 9-8.67 10.28-15.15.16-.78.47-1 1.27-1q4.4.06 8.79 0c.92 0 1.29.22 1.26 1.21-.08 1.88 0 3.77 0 5.66s-.87 2.93-2.91 3c-1.12.05-2.24 0-3.37 0-.92 0-1.31.41-1.29 1.31v3.13c0 1.04.39 1.29 1.31 1.27h5.54c4.23 0 6.35-2.11 6.37-6.37s0-8.59 0-12.88c0-1.51-.16-1.67-1.64-1.68H197c.1-1.77.19-3.35.28-5h20.07c1 0 1.48-.38 1.42-1.42-.01-.85.04-1.61.03-2.37zM176.4 21c.08-1.11-.43-1.5-1.5-1.49H158c.82-1.21 1.45-2.17 2.11-3.12a1 1 0 0 0-.29-1.63c-.86-.59-1.76-1.13-2.58-1.77s-1.49-.44-2.07.43c-1.17 1.77-2.41 3.5-3.58 5.28a1.65 1.65 0 0 1-1.57.83h-8.07c-1.86 0-2 .11-1.95 2 0 3.68-.48 3.26 3.25 3.28h4.14c-1 1.51-1.77 2.82-2.72 3.94a6.63 6.63 0 0 0-1.6 5.19c.14 1.56.11 1.65 1.65 1.66h10.6c.42 0 .85 0 1.31.06v8.08a1.68 1.68 0 0 1-1.78 1.73 8.15 8.15 0 0 1-1.21 0c-.95-.06-1.3.44-1.3 1.31v2.77c0 .92.35 1.25 1.24 1.23h4.7c2.52-.08 4-1.46 4.07-4 .09-3.37.08-6.74.06-10.11 0-.83.24-1.13 1.09-1.11h7.71c3.72 0 3.22.57 3.25-3.24 0-2 0-2-2-2h-10v-2.59a1.09 1.09 0 0 0-1.25-1.26h-3.25a1.11 1.11 0 0 0-1.25 1.26v2.5h-6c1.21-1.77 2.28-3.41 3.44-5a1.65 1.65 0 0 1 1.15-.43h19.75c1.05 0 1.48-.36 1.41-1.4a17.62 17.62 0 0 1-.06-2.4zm123.89-2.71c-2.53.05-5.06 0-7.59 0a1.62 1.62 0 0 1-1.56-.82c-.91-1.37-1.94-2.66-2.91-4a1.41 1.41 0 0 0-2.25-.4c-.85.6-1.77 1.09-2.67 1.63-.71.43-.77.94-.24 1.58s.94 1.19 1.52 1.94h-8.47c.09-.34.14-.53.2-.71.67-2.18.67-2.18-1.42-2.95-.46-.17-.92-.31-1.36-.5a1.25 1.25 0 0 0-1.94.89 29.8 29.8 0 0 1-8.22 12.82c-1.44 1.39-1.42 1.71 0 3.12 2.09 2.09 2.09 2.09 4.57.48v18.22c0 1.38.21 1.59 1.6 1.61h2.41c1.51 0 1.7-.21 1.7-1.77 0-7.86.1-15.73-.06-23.6 0-2.3 1.06-4 1.94-5.87a3.17 3.17 0 0 1 .16 1c0 2 0 2 2 2h20.84c3.6 0 3.21.48 3.26-3.3 0-.99-.42-1.39-1.51-1.37z" class="cls-1"/><path d="M298.72 38.57c0-1.12-.32-1.58-1.5-1.58q-9 .06-17.92 0c-1.13 0-1.47.46-1.46 1.51v10.46c0 1.39.18 1.55 1.62 1.55h17.68c1.13 0 1.58-.34 1.56-1.51-.04-3.46-.03-6.95.02-10.43zm-5.82 7.2h-9.27v-3.5c0-.2.4-.53.61-.54h8.64zm-13.57-10.16c3-.06 6 0 9 0h7.22c3.51 0 3.11.4 3.13-3.15 0-1.47-.13-1.6-1.57-1.6h-16.12c-3.42 0-3.14-.46-3.17 3.28.01 1.05.4 1.49 1.51 1.47zm.28-6.2h15.88c3.7 0 3.14.31 3.22-3.21 0-1.09-.32-1.51-1.44-1.49-3 .05-5.94 0-8.91 0h-7.7c-3 0-2.82-.39-2.81 2.88.01 1.71.15 1.82 1.76 1.82zM152.38 39.58a41.55 41.55 0 0 0-3.26-2.66c-.22-.15-1 .1-1.23.4-2.43 3-4.77 6.12-7.21 9.14-.6.75-.58 1.23.14 1.79a26.82 26.82 0 0 1 2.31 1.93c.79.78 1.47.73 2.11-.08q3.51-4.43 7-8.88a4.56 4.56 0 0 0 .46-1c-.12-.22-.16-.51-.32-.64zm21.78 4.01c-1.55-2.09-3.15-4.14-4.82-6.13a1.78 1.78 0 0 0-1.62-.44 17.42 17.42 0 0 0-3.18 2.15 1.31 1.31 0 0 0-.15 1.27c2.29 3.28 4.65 6.51 7 9.75a6.64 6.64 0 0 0 .72.68c.41-.23.7-.37 1-.54.83-.56 1.63-1.18 2.5-1.68s1-1.16.47-2c-.67-1.01-1.21-2.1-1.92-3.06zm76.05-5.94c-1.05-2.94-1-2.92-4.05-2.17-.87.22-1.14.59-.78 1.44.27.64.45 1.32.7 2.06h-1.77v-5.13h3.23c3.12 0 2.68.18 2.75-2.82 0-1-.32-1.46-1.39-1.42-1.54.07-3.09 0-4.62 0v-3c.15-.07.22-.13.29-.13h4c3.14 0 2.6.41 2.72-2.66 0-1.19-.39-1.51-1.52-1.5h-15.66c-3.06 0-2.66-.3-2.75 2.69 0 1.2.43 1.52 1.55 1.47 1.8-.07 3.6 0 5.48 0v3.17H235c-2.88 0-2.69-.44-2.72 2.84 0 1.05.4 1.43 1.43 1.39h4.63V39a2.4 2.4 0 0 1-.47.11h-4c-3.3 0-2.8-.34-2.88 2.91 0 1 .3 1.33 1.31 1.33q8.91-.06 17.82 0c1.07 0 1.47-.37 1.39-1.4v-1.8a2.13 2.13 0 0 0-.31-.86 9.64 9.64 0 0 1-.99-1.64z" class="cls-1"/><rect width="28.51" height="5.23" x="309.71" y="14.77" class="cls-1" rx="1.22"/><path d="M339.68 28.41h-31.82a1.25 1.25 0 0 0-1.25 1.25v2.73a1.25 1.25 0 0 0 1.25 1.25h8.55l-4.56 6.67a36.28 36.28 0 0 1-2.3 3.31 6.6 6.6 0 0 0-1.6 5.19c.14 1.56.11 1.66 1.65 1.66h18.42a2.06 2.06 0 0 1 .36 0h7.71c3.72 0 3.22.57 3.25-3.24a3.51 3.51 0 0 0-.17-1.66l-2.72-7a1.27 1.27 0 0 0-1.18-.8h-2.94a1.14 1.14 0 0 0-1.07 1.53l1.95 5.2a.52.52 0 0 1-.49.7h-5.43l-5.74-.09h-6c1-1.46 1.9-2.83 2.84-4.14l4.52-6.54c.2-.29.39-.57.56-.84h16.32a1.25 1.25 0 0 0 1.25-1.25v-2.68a1.25 1.25 0 0 0-1.36-1.25zM36.73 13.12L23.61 0 .08 23.54H.02L0 74.44h18.73l.03-43.35 17.97-17.97zm83.6 8.33H101.6v47.94L83.73 87.34l12.98 13.13 23.57-23.53-.07-.06h.12V21.45zM77.77 74.39H60.94a26.48 26.48 0 0 1 0-53h16.83v13.85H60.94a12.67 12.67 0 0 0 0 25.34h16.83zm130.9-11.47v13.99c0 .12 0 .25-.07.38l-.21-.3-1.55-2.3-7.78-11.56a.52.52 0 0 0-.48-.28h-6.89v24.44c.46.08 6.39.06 6.66 0V72.93h.08l9.7 14.39h7.23V62.91c-.36-.08-6.36-.07-6.69.01zm-32.31-.51A12.69 12.69 0 1 0 189 75.2a12.68 12.68 0 0 0-12.64-12.79zm-.07 19a6.33 6.33 0 1 1 6.38-6.23 6.3 6.3 0 0 1-6.38 6.24zm100.86-18.95a12.69 12.69 0 1 0 12.67 12.8 12.69 12.69 0 0 0-12.67-12.8zm-.07 19a6.33 6.33 0 1 1 6.38-6.23 6.3 6.3 0 0 1-6.38 6.24zM230.5 68.82a6.25 6.25 0 0 1 5.21 1.74l4.47-4.48a12.68 12.68 0 1 0 0 18l-4.46-4.46a6.33 6.33 0 0 1-9.29-8.57 6.08 6.08 0 0 1 4.07-2.23zM160 73.36a6 6 0 0 0 .65-5.15 6.81 6.81 0 0 0-2.13-3.12 9.49 9.49 0 0 0-6.28-2.24h-12.16c-.08.43-.06 24.21 0 24.48h12.06a10.11 10.11 0 0 0 3.81-.71 8.23 8.23 0 0 0 3.81-2.93 6 6 0 0 0 1-4.9 6.62 6.62 0 0 0-2-3.41l-.32-.31c.12-.1.21-.17.29-.25a7.08 7.08 0 0 0 1.27-1.46zm-5.71 7.7a2.57 2.57 0 0 1-.34.54 1.63 1.63 0 0 1-.17.2 3.32 3.32 0 0 1-1.28.81 3.62 3.62 0 0 1-.47.13l-.42.07h-4.68v-5.45h4.22a3.93 3.93 0 0 1 1.14.16 3.28 3.28 0 0 1 1 .5 3.92 3.92 0 0 1 .33.27 2.62 2.62 0 0 1 .28.3 2.27 2.27 0 0 1 .35.54 2.6 2.6 0 0 1 .1.25c0 .08 0 .15.07.22a2.73 2.73 0 0 1 .06.49 2.43 2.43 0 0 1-.19.97zm-.47-9.31a3.37 3.37 0 0 1-2 1 7.43 7.43 0 0 1-.94.07h-3.91v-5.49h4.24a3.52 3.52 0 0 1 2.6 1.05 2.37 2.37 0 0 1 .01 3.37zm96.12-8.81h-6.86v24.49h18.53v-5.77h-11.67V62.94zm78.82-.06L324 63h-4.73v24.36h9.52A12.24 12.24 0 0 0 341 75.17a12.25 12.25 0 0 0-12.24-12.29zM335 75.17a6.25 6.25 0 0 1-6.23 6.24h-2.68V69l2.7-.08a6.26 6.26 0 0 1 6.21 6.2zm-25.18-.07a5.23 5.23 0 1 1-10.44 0V62.8h-6.7v12.3a11.93 11.93 0 1 0 23.85 0V62.8h-6.71z" class="cls-1"/></g></g></svg>
